svg/gymnastics.svg

<svg xmlns="http://www.w3.org/2000/svg" viewBox="0 0 24 24"><path d="M4 6c0-1.1.9-2 2-2s2 .9 2 2-.9 2-2 2-2-.9-2-2M1 9h6l7-5 1.31 1.5-4.17 3H14L21.8 4 23 5.4 14.5 12 14 22h-2l-.5-10L8 11H1z"/></svg>

<svg xmlns="http://www.w3.org/2000/svg" id="mdi-gymnastics" viewBox="0 0 24 24"><path d="M4 6C4 4.9 4.9 4 6 4S8 4.9 8 6 7.1 8 6 8 4 7.1 4 6M1 9H7L14 4L15.31 5.5L11.14 8.5H14L21.8 4L23 5.4L14.5 12L14 22H12L11.5 12L8 11H1V9Z" /></svg>
